X: 5
T: No_102_Each_Singer_Wears_a_White_Feather.krn
N: Derived from No_102_Each_Singer_Wears_a_White_Feather.krn
%%abc-version 2.0
%%abcx-abcm2ps-target-version 5.9.1 (29 Sep 2008)
%%abc-creator hum2abc beta
%%abcx-conversion-date 2019/03/15 08:37:56
%%humdrum-veritas 1198529533
%%humdrum-veritas-data 4274313970
%%linebreak <none>
%%barnumbers 0
L: 1/8
M: 3/4
K: Ab clef=bass
[K:clef=bass][M:3/4]C4CB, | 
C4B,A, | 
B,2A,2F,E, | 
A,2A,3F,/E,/ ||  
[M:2/4]z2A,2 ||  
[M:3/4]B,4A,F, ||  
[M:2/4]A,2F,E, | 
E,2F,E, ||  
[M:3/4]E,4C,B,,/ z/ ||  
[M:2/4]E,4 | 
C,B,, B,,E, | 
E,2F,E, | 
E,2C,B,, ||  
[M:7/8]E,2E,2C,B,,F, ||  
[M:2/4]F,2E,C, | 
F,4 ||  
[M:3/4]z4z B, ||  
[M:2/4]B,2G,F, ||  
[M:3/4]F,4G,E, ||  
[M:7/8]F,2E,2C,B,,F, ||  
[M:2/4]F,2E,C, | 
F,2G,F, | 
F,4 | 
F,4 |]  



